material/.icons/material/pot-outline.svg

<svg xmlns="http://www.w3.org/2000/svg" viewBox="0 0 24 24"><path d="M3 10v2h2v7c0 1.1.9 2 2 2h10c1.1 0 2-.9 2-2v-7h2v-2H3m4 2h10v7H7v-7z"/></svg>

<?xml version="1.0" encoding="UTF-8"?><!DOCTYPE svg PUBLIC "-//W3C//DTD SVG 1.1//EN" "http://www.w3.org/Graphics/SVG/1.1/DTD/svg11.dtd"><svg xmlns="http://www.w3.org/2000/svg" xmlns:xlink="http://www.w3.org/1999/xlink" version="1.1" id="mdi-pot-outline" width="24" height="24" viewBox="0 0 24 24"><path d="M3 10V12H5V19C5 20.1 5.9 21 7 21H17C18.1 21 19 20.1 19 19V12H21V10H3M7 12H17V19H7V12Z" /></svg>
